Apricity Icons/22/panel/discord-tray-deafened.svg

<svg xmlns="http://www.w3.org/2000/svg" width="22" height="22" version="1.1">
 <defs>
  <style id="current-color-scheme" type="text/css">
   .ColorScheme-Text { color:#dfdfdf; } .ColorScheme-Highlight { color:#4285f4; }
  </style>
 </defs>
 <path style="fill:currentColor" class="ColorScheme-Text" d="M 4.6370626,3.2226561 3.223,4.6367187 5.3987813,6.8124999 C 4.523922,7.9795349 4.0003438,9.425073 4.0003438,11 l 0,4.666016 c 0,0 6.514e-4,2.333984 2.3339844,2.333984 l 2.6660156,0 0,-6 -3,0 0,-1 c 0,-0.962016 0.3520335,-1.884543 0.90625,-2.6796871 l 6.0937502,6.0937491 0,3.585938 2.666016,0 c 1.188529,-0.134266 1.660682,-0.749513 2.197265,-1.550783 L 14.457375,13.042969 13.414406,12 Z m 6.3632814,0.7773438 c -1.0492551,0 -2.0365592,0.242713 -2.9277346,0.65625 l 1.5781245,1.578125 c 0.4357221,-0.1454061 0.8874071,-0.234375 1.3496101,-0.234375 2.59,0 5,2.41 5,5.0000001 l 0,1 -0.585938,0 2.585938,2.585938 0,-3.585938 c 0,-3.8733331 -3.126666,-7.0000001 -7,-7.0000001 z"/>
</svg>

<svg xmlns="http://www.w3.org/2000/svg" width="22" height="22"><defs><style id="current-color-scheme" type="text/css"></style></defs><path d="M4.637 3.223L3.223 4.637l2.176 2.175A6.952 6.952 0 0 0 4 11v4.666S4.001 18 6.334 18H9v-6H6v-1c0-.962.352-1.885.907-2.68L13 14.414V18h2.666c1.189-.134 1.661-.75 2.198-1.55l-3.407-3.407L13.414 12zM11 4a6.93 6.93 0 0 0-2.927.656L9.65 6.234A4.26 4.26 0 0 1 11 6c2.59 0 5 2.41 5 5v1h-.587L18 14.586V11c0-3.873-3.126-7-7-7z" fill="currentColor" color="#dfdfdf"/></svg>
